X: 1025
T: Tribute to Minnie White (A11)
N: page A11
N: heptatonic
N: matches 325
M: 2/4
L: 1/8
K: Edor
Q: 1/4=60
A|:"D"de fd/A/|"G"B>c BA|"D"de fd|"A"af ec| "D"de fd/A/|"G"B>c BA|
"A"dF EG|[1"D" FD FA:|[2 "D" FD DD/D/|: "D"[FA]>[GB] [FA]D|FA AF/A/|\
"G" B>c BA|"A"dF EG| "D"[FA]>[GB] [FA]D|FA AF/A/| "G" B>c BA|\
"A"dF EG| [1"D"FE DD/E/ :|[2FE Dz|:
"Em" G>E GA|BA Bc|"D"dA FA|"Em"G>E GA| BA Bc|"D"dA FD|"Em"E2E2::
"Em"LeLe B/c/d|ed B>c|"D"dA FA|dc BA|\
"Em"LeLe B/c/d|ed B>c|"D"dA FD|[1 "Em" E2 E2:|2 "Em"E2 E|
